svgs/sharp-light/rotate-exclamation.svg

<svg xmlns="http://www.w3.org/2000/svg" viewBox="0 0 512 512"><!--! Font Awesome Pro 6.6.0 by @fontawesome - https://fontawesome.com License - https://fontawesome.com/license (Commercial License) Copyright 2024 Fonticons, Inc. --><path d="M403.5 133.1C368.3 90.9 315.3 64 256 64C165.2 64 89.1 127 69.1 211.7L38 204.3C61.3 105.5 150.1 32 256 32c69.2 0 131 31.4 172.1 80.6L464 154.9 464 96l0-16 32 0 0 16 0 96 0 16-16 0-96 0-16 0 0-32 16 0 55.9 0-36.3-42.8s0 0 0 0l-.1-.1zM272 144l0 128 0 16-32 0 0-16 0-128 0-16 32 0 0 16zm8 176l0 48-48 0 0-48 48 0zM16 432l0-16 0-96 0-16 16 0 96 0 16 0 0 32-16 0-55.9 0 36.3 42.8s0 0 0 0l.1 .1C143.7 421.1 196.7 448 256 448c90.8 0 166.9-63 186.9-147.7l31.1 7.4C450.7 406.5 361.9 480 256 480c-69.2 0-131-31.4-172.1-80.6L48 357.1 48 416l0 16-32 0z"/></svg>

<svg xmlns="http://www.w3.org/2000/svg" viewBox="0 0 512 512"><!--! Font Awesome Pro 6.4.2 by @fontawesome - https://fontawesome.com License - https://fontawesome.com/license (Commercial License) Copyright 2023 Fonticons, Inc. --><path d="M403.5 133.1C368.3 90.9 315.3 64 256 64C165.2 64 89.1 127 69.1 211.7L38 204.3C61.3 105.5 150.1 32 256 32c69.2 0 131 31.4 172.1 80.6L464 154.9V96 80h32V96v96 16H480 384 368V176h16 55.9l-36.3-42.8 0 0-.1-.1zM272 144V272v16H240V272 144 128h32v16zm8 176v48H232V320h48zM16 432V416 320 304H32h96 16v32H128 72.1l36.3 42.8 0 0 .1 .1C143.7 421.1 196.7 448 256 448c90.8 0 166.9-63 186.9-147.7l31.1 7.4C450.7 406.5 361.9 480 256 480c-69.2 0-131-31.4-172.1-80.6L48 357.1V416v16H16z"/></svg>
